icons/unselected-24.svg

<svg id="icons" xmlns="http://www.w3.org/2000/svg" viewBox="0 0 24 24"><path d="M21,3H10V2H22V22H18V21h3V9a10.69852,10.69852,0,0,0-6.25214,1.96069c-.15362-.24933-.34906-.543-.5581-.83789A11.73042,11.73042,0,0,1,21,8ZM2,2V4H3V3H4V2H2ZM6,22H8V21H6Zm5,0h2V21H11ZM3,6H2V8H3Zm0,5H2v2H3Zm0,5H2v2H3Zm0,4H2v2H4V21H3ZM7.06738,4.0459l.9961-.08985C8,3,8,3,8,2H6V3H7v.02246C7.0166,3.38379,7.03809,3.72266,7.06738,4.0459Zm6.77344,10.168a13.60418,13.60418,0,0,0-.59473-1.81055l-.08789-.21-.91406.40625.07324.17383a12.67711,12.67711,0,0,1,.55274,1.67871Zm.30664,2.0957-.99609.0918c.01562.165.03125.3291.05273.49707a6.75839,6.75839,0,0,0,.41309,1.63086l.93164-.36524a5.7475,5.7475,0,0,1-.35254-1.39453C14.17676,16.61523,14.16113,16.46289,14.14746,16.30957Zm-6.751-10.168A7.701,7.701,0,0,0,8.169,8.17676l.86914-.49414a6.72609,6.72609,0,0,1-.669-1.77344Zm4.46973,4.23731a11.44909,11.44909,0,0,0-.98926-.80176c-.21093-.1582-.42383-.31738-.63183-.49024l-.63867.76954c.22167.18359.44628.35253.67089.5205a10.74667,10.74667,0,0,1,.90723.73243Zm3.584,9.59179-.88868.457c.13477.2627.27442.55079.417.876L15.28381,22H16.541L16,21S15.59473,20.251,15.4502,19.9707Z"/><path fill="none" d="M0 0h24v24H0z"/></svg>

<svg xmlns="http://www.w3.org/2000/svg" viewBox="0 0 24 24"><path d="M21 3H10V2h12v20h-4v-1h3V9a10.699 10.699 0 0 0-6.252 1.96c-.154-.249-.35-.542-.558-.837A11.73 11.73 0 0 1 21 8zM2 2v2h1V3h1V2H2zm4 20h2v-1H6zm5 0h2v-1h-2zM3 6H2v2h1zm0 5H2v2h1zm0 5H2v2h1zm0 4H2v2h2v-1H3zM7.067 4.046l.996-.09C8 3 8 3 8 2H6v1h1v.022c.017.362.038.7.067 1.024zm6.774 10.168a13.604 13.604 0 0 0-.595-1.81l-.088-.21-.914.406.073.173a12.677 12.677 0 0 1 .553 1.68zm.306 2.096l-.996.091c.016.165.032.33.053.497a6.758 6.758 0 0 0 .413 1.631l.932-.365a5.747 5.747 0 0 1-.353-1.394c-.02-.155-.035-.307-.049-.46zM7.397 6.142a7.701 7.701 0 0 0 .772 2.035l.87-.494a6.726 6.726 0 0 1-.67-1.774zm4.47 4.237a11.45 11.45 0 0 0-.99-.802c-.211-.158-.424-.317-.632-.49l-.639.77c.222.183.447.352.671.52a10.747 10.747 0 0 1 .908.732zm3.583 9.592l-.888.457c.134.262.274.55.417.876l.305.696h1.257L16 21s-.405-.749-.55-1.03z"/><path fill="none" d="M0 0h24v24H0z"/></svg>
